images/vault.svg

<svg width="32" height="32" viewBox="0 0 32 32" fill="none" xmlns="http://www.w3.org/2000/svg">
<rect x="4" y="4" width="24" height="24" rx="4" stroke="#445B74" stroke-width="1.8"/>
<path d="M8.56006 18.0996L8.56006 20.8996" stroke="#445B74" stroke-width="1.8" stroke-linecap="round"/>
<path d="M8.56006 11.0996L8.56006 13.8996" stroke="#445B74" stroke-width="1.8" stroke-linecap="round"/>
<path fill-rule="evenodd" clip-rule="evenodd" d="M13.4465 10.5736C12.9453 11.0747 12.9453 11.8873 13.4465 12.3885L15.2497 14.1917C14.688 15.3283 14.688 16.672 15.2498 17.8085L13.4466 19.6117C12.9454 20.1129 12.9454 20.9254 13.4466 21.4266C13.9478 21.9278 14.7604 21.9278 15.2615 21.4266L17.0527 19.6354C18.1993 20.2213 19.5651 20.2294 20.7177 19.6598L22.521 21.463C23.0222 21.9642 23.8347 21.9642 24.3359 21.463C24.8371 20.9618 24.8371 20.1493 24.3359 19.6481L22.5447 17.8569C23.139 16.6942 23.139 15.306 22.5449 14.1433L24.3361 12.3521C24.8372 11.8509 24.8372 11.0383 24.3361 10.5372C23.8349 10.036 23.0223 10.036 22.5212 10.5372L20.718 12.3404C19.5652 11.7705 18.1992 11.7787 17.0525 12.3647L15.2614 10.5736C14.7602 10.0724 13.9476 10.0724 13.4465 10.5736ZM17.4394 17.4701C16.6275 16.6582 16.6275 15.3418 17.4394 14.5299C18.2513 13.718 19.5676 13.718 20.3795 14.5299C21.1914 15.3418 21.1914 16.6582 20.3795 17.4701C19.5676 18.282 18.2513 18.282 17.4394 17.4701Z" fill="#1AC486"/>
</svg>

<svg xmlns="http://www.w3.org/2000/svg" width="25.801" height="25.8" viewBox="0 0 25.801 25.8">
  <g id="vault" transform="translate(-3.1 -3.1)">
    <rect id="Rectangle_14" data-name="Rectangle 14" width="24" height="24" rx="4" transform="translate(4 4)" fill="none" stroke="#445b74" stroke-width="1.8"/>
    <path id="Path_2224" data-name="Path 2224" d="M8.56,18.1v2.8" fill="none" stroke="#445b74" stroke-linecap="round" stroke-width="1.8"/>
    <path id="Path_2225" data-name="Path 2225" d="M8.56,11.1v2.8" fill="none" stroke="#445b74" stroke-linecap="round" stroke-width="1.8"/>
    <path id="Path_2226" data-name="Path 2226" d="M13.446,10.574a1.283,1.283,0,0,0,0,1.815l1.8,1.8a4.092,4.092,0,0,0,0,3.617l-1.8,1.8a1.283,1.283,0,0,0,1.815,1.815l1.791-1.791a4.092,4.092,0,0,0,3.665.024l1.8,1.8a1.283,1.283,0,1,0,1.815-1.815l-1.791-1.791a4.091,4.091,0,0,0,0-3.714l1.791-1.791a1.283,1.283,0,0,0-1.815-1.815l-1.8,1.8a4.091,4.091,0,0,0-3.666.024l-1.791-1.791A1.283,1.283,0,0,0,13.446,10.574Zm3.993,6.9a2.079,2.079,0,1,1,2.94,0A2.079,2.079,0,0,1,17.439,17.47Z" fill="#d05bc4" fill-rule="evenodd"/>
  </g>
</svg>
